places/16/folder-templates.svg

<?xml version="1.0" encoding="UTF-8" standalone="no"?>
<!-- Created with Inkscape (http://www.inkscape.org/) -->

<svg
   xmlns:dc="http://purl.org/dc/elements/1.1/"
   xmlns:cc="http://creativecommons.org/ns#"
   xmlns:rdf="http://www.w3.org/1999/02/22-rdf-syntax-ns#"
   xmlns:svg="http://www.w3.org/2000/svg"
   xmlns="http://www.w3.org/2000/svg"
   xmlns:sodipodi="http://sodipodi.sourceforge.net/DTD/sodipodi-0.dtd"
   xmlns:inkscape="http://www.inkscape.org/namespaces/inkscape"
   id="svg13094"
   height="16"
   width="16"
   version="1.1"
   inkscape:version="0.48.3.1 r9886"
   sodipodi:docname="folder-templates.svg">
  <defs
     id="defs3009" />
  <sodipodi:namedview
     pagecolor="#ffffff"
     bordercolor="#666666"
     borderopacity="1"
     objecttolerance="10"
     gridtolerance="10"
     guidetolerance="10"
     inkscape:pageopacity="0"
     inkscape:pageshadow="2"
     inkscape:window-width="1920"
     inkscape:window-height="1032"
     id="namedview3007"
     showgrid="true"
     inkscape:zoom="41.7193"
     inkscape:cx="4.2548365"
     inkscape:cy="8.1450376"
     inkscape:window-x="-7"
     inkscape:window-y="25"
     inkscape:window-maximized="1"
     inkscape:current-layer="svg13094"
     inkscape:snap-bbox="true"
     inkscape:bbox-paths="true"
     inkscape:bbox-nodes="true"
     inkscape:snap-bbox-edge-midpoints="true"
     inkscape:snap-bbox-midpoints="true"
     inkscape:object-paths="true"
     inkscape:snap-intersection-paths="true"
     inkscape:object-nodes="true"
     inkscape:snap-smooth-nodes="true"
     inkscape:snap-midpoints="true"
     inkscape:snap-object-midpoints="true"
     inkscape:snap-center="true">
    <inkscape:grid
       type="xygrid"
       id="grid2982" />
  </sodipodi:namedview>
  <metadata
     id="metadata13099">
    <rdf:RDF>
      <cc:Work
         rdf:about="">
        <dc:format>image/svg+xml</dc:format>
        <dc:type
           rdf:resource="http://purl.org/dc/dcmitype/StillImage" />
        <dc:title />
      </cc:Work>
    </rdf:RDF>
  </metadata>
  <path
     sodipodi:nodetypes="ccscccccccsccccccccccccccccccccccccccccc"
     inkscape:connector-curvature="0"
     id="path3009"
     d="M 3.75,1 3.375,2.46875 C 2.544833,3.002338 2,3.939824 2,5 2,5.522754 2.139922,6.009536 2.375,6.4375 L 1,15 2.3125,15 5,9 7.6875,15 9,15 7.625,6.4375 C 7.860078,6.009536 8,5.522754 8,5 8,3.939824 7.455167,3.002338 6.625,2.46875 L 6.25,1 z m 6.25,0 0,14 5,0 0,-2 -2,0 0,-1 2,0 0,-2 -3,0 0,-1 3,0 0,-2 -2,0 0,-1 2,0 0,-2 -3,0 0,-1 3,0 0,-2 z M 4,4 6,4 6,6 4,6 z"
     style="color:#000000;fill:#27303a;fill-opacity:0.753280819999999968;fill-rule:nonzero;stroke-width:1;stroke-linecap:butt;stroke-linejoin:miter;stroke-miterlimit:4;stroke-opacity:1;stroke-dasharray:none;stroke-dashoffset:0;marker:none;visibility:visible;display:inline;overflow:visible;enable-background:accumulate" />
  <path
     style="font-size:medium;font-style:normal;font-variant:normal;font-weight:normal;font-stretch:normal;text-indent:0;text-align:start;text-decoration:none;line-height:normal;letter-spacing:normal;word-spacing:normal;text-transform:none;direction:ltr;block-progression:tb;writing-mode:lr-tb;text-anchor:start;baseline-shift:baseline;color:#000000;fill:#f1f3f5;fill-opacity:0.90288714000000003;fill-rule:nonzero;stroke:none;stroke-width:2;marker:none;visibility:visible;display:inline;overflow:visible;enable-background:accumulate;font-family:Sans;-inkscape-font-specification:Sans"
     d="M 2.96875 0 L 2.78125 0.75 L 2.1875 2.03125 C 1.3413543 2.7689242 1 3.8018867 1 5 C 1 5.5070757 0.953308 5.9337558 1.125 6.375 L 0 14.84375 L -0.1875 16 L 1 16 L 2.3125 16 L 2.96875 16 L 3.21875 15.40625 L 5 11.4375 L 6.78125 15.40625 L 7.03125 16 L 7.6875 16 L 8 16 L 8 15 L 7.6875 15 L 5 9 L 2.3125 15 L 1 15 L 2.375 6.4375 C 2.139922 6.009536 2 5.522754 2 5 C 2 3.939824 2.544833 3.002338 3.375 2.46875 L 3.75 1 L 6.25 1 L 6.625 2.46875 C 7.455167 3.002338 8 3.939824 8 5 L 8 2.25 C 7.9316484 2.1790394 7.8889786 2.0979244 7.8125 2.03125 L 7.21875 0.75 L 7.03125 0 L 6.25 0 L 3.75 0 L 2.96875 0 z M 8 5 C 8 5.522754 7.860078 6.009536 7.625 6.4375 L 8 8.78125 L 8 5 z M 9 0 L 9 1 L 9 2 L 9 4.40625 L 9 15 L 9 16 L 10 16 L 10.1875 16 L 15 16 L 16 16 L 16 15 L 16 13 L 16 12 L 16 10 L 16 9 L 16 7 L 16 6 L 16 4 L 16 3 L 16 1 L 16 0 L 15 0 L 10 0 L 9 0 z M 10 1 L 15 1 L 15 3 L 12 3 L 12 4 L 15 4 L 15 6 L 13 6 L 13 7 L 15 7 L 15 9 L 12 9 L 12 10 L 15 10 L 15 12 L 13 12 L 13 13 L 15 13 L 15 15 L 10 15 L 10 1 z M 4 4 L 4 6 L 6 6 L 6 4 L 4 4 z "
     id="path2984" />
</svg>

<?xml version="1.0" encoding="UTF-8"?>
<svg id="a" width="16" height="16" version="1.1" xmlns="http://www.w3.org/2000/svg" xmlns:cc="http://creativecommons.org/ns#" xmlns:dc="http://purl.org/dc/elements/1.1/" xmlns:rdf="http://www.w3.org/1999/02/22-rdf-syntax-ns#">
	<metadata id="d">
		<rdf:RDF>
			<cc:Work rdf:about="">
				<dc:format>image/svg+xml</dc:format>
				<dc:type rdf:resource="http://purl.org/dc/dcmitype/StillImage"/>
				<dc:title/>
			</cc:Work>
		</rdf:RDF>
	</metadata>
	<defs>
		<style id="current-color-scheme" type="text/css">.ColorScheme-Text {color:#090d11;}.ColorScheme-Background{color:#ffffff;}</style>
	</defs>
	<path id="c" d="m3.75 1-0.375 1.4688c-0.83017 0.53359-1.375 1.4711-1.375 2.5312 0 0.52275 0.13992 1.0095 0.375 1.4375l-1.375 8.5625h1.3125l2.6875-6 2.6875 6h1.3125l-1.375-8.5625c0.23508-0.42796 0.375-0.91475 0.375-1.4375 0-1.0602-0.54483-1.9977-1.375-2.5312l-0.375-1.4688zm6.25 0v14h5v-2h-2v-1h2v-2h-3v-1h3v-2h-2v-1h2v-2h-3v-1h3v-2zm-6 3h2v2h-2z" style="fill:currentColor;fill-opacity:0.75;" class="ColorScheme-Text"/>
	<path id="b" d="m2.9688 0-0.1875 0.75-0.59375 1.2812c-0.84615 0.73767-1.1875 1.7706-1.1875 2.9688 0 0.50708-0.046692 0.93376 0.125 1.375l-1.125 8.4688-0.1875 1.1562h1.1875 1.3125 0.65625l0.25-0.59375 1.7812-3.9688 1.7812 3.9688 0.25 0.59375h0.65625 0.3125v-1h-0.3125l-2.6875-6-2.6875 6h-1.3125l1.375-8.5625c-0.23508-0.42796-0.375-0.91475-0.375-1.4375 0-1.0602 0.54483-1.9977 1.375-2.5312l0.375-1.4688h2.5l0.375 1.4688c0.83017 0.53359 1.375 1.4711 1.375 2.5312v-2.75c-0.068352-0.070961-0.11102-0.15208-0.1875-0.21875l-0.59375-1.2812-0.1875-0.75h-0.78125-2.5-0.78125zm5.0312 5c0 0.52275-0.13992 1.0095-0.375 1.4375l0.375 2.3438v-3.7812zm1-5v1 1 2.4062 10.594 1h1 0.1875 4.8125 1v-1-2-1-2-1-2-1-2-1-2-1h-1-5-1zm1 1h5v2h-3v1h3v2h-2v1h2v2h-3v1h3v2h-2v1h2v2h-5v-14zm-6 3v2h2v-2h-2z" style="fill:currentColor;fill-opacity:0.5;" class="ColorScheme-Background"/>
</svg>
